X: 24
I: linebreak $
T: Vita di Cholino
C: modified by V. Stephens from "La Vida de Culin"
P: One dance: 5 times through. Play: two dances.
K: C major
M: 4/4
L: 1/8
E2 |: "C"G2G2 G2G2 | "F"A4 z2A2 | "F"A2A3/B/ c2c3/B/ | "C"G4 z2G2 | "C"c2c2 c2B2 | "F"A4 A2A2 | 
"C"G2G2 "Dm"F2F2 | "C"E4 z2C2 | "C"E4 "G"D4 | "C"C4 z2C2 | "C"E4 "G"D4 | "C"C4 z2C2 | 
 [1-4 "C"E4 "Dm"F4 | "G"G6E2 :|]  [5 "C"E4 "G"D4 | "C"C8 |] 

P: AP: AP: AP: AP: AP: AP: AP: AX: 25
I: linebreak $
T: Voltate in ça Rosina
P: Play two times through
N: Drone: A/E
K: A minor
M: 4/4
L: 1/8
P: A (3x)
"^Quadernaria"c2cd e2e2 | eded c2c2 | c2cd e2e2 | eded c2c2 | dddc B2B2 | c2B2 A4 | 
dddc B2B2 | c2B2 "^        (3)"A4 :: 
M: 2/4
P: B (2x or 4x) 
"^Piva"c2 cd | e2 e2 | ed ed | c2 c2 | dd dc | B2 B2 | 
c2 B2 | A4 :| 

